src/resources/my-account-icon.svg

<?xml version="1.0" encoding="UTF-8"?>
<svg
        xmlns="http://www.w3.org/2000/svg"
        fill="none"
        width="38px"
        height="38px"
        viewBox="0 0 38 38 "
        stroke="currentColor"

>
    <g
            id="Symbols"
            stroke="currentColor"
            strokeWidth="1"
            fill="none"
            fillRule="evenodd"
    >
        <title>My Account</title>
        <g
                id="components-/-navigation-/-header"
                transform="translate(-1152.000000, -19.000000)"
                fill="currentColor"
                fillRule="nonzero"
        >
            <g
                    id="np_user_514033_000000"
                    transform="translate(1152.000000, 19.000000)"
            >
                <path
                        d="M19,21 C15.6864276,21 13,18.3135724 13,15 C13,11.6864276 15.6864276,9 19,9 C22.3135724,9 25,11.6864276 25,15 C25,18.3135724 22.3135724,21 19,21 Z"
                        id="Path"
                />
                <path
                        d="M18.999924,0 C8.48747716,0 0,8.47725642 0,18.9770336 C0,25.3027086 3.08254767,30.868881 7.85414636,34.3264949 C8.10813735,34.4945217 8.3192645,34.6641932 8.57158349,34.8322116 C8.82557448,35.0002384 9.07791036,35.1270808 9.33191823,35.2967692 C9.33191823,35.2967692 9.37479895,35.2967692 9.37479895,35.3395982 C9.62878993,35.4664406 9.88112581,35.6344674 10.1351337,35.7613099 C10.1780144,35.7613099 10.1780144,35.8041389 10.2192485,35.8041389 C10.4732394,35.9309813 10.7255753,36.0578238 10.9366856,36.1830215 C10.9795663,36.1830215 11.0208004,36.2258506 11.0208004,36.2258506 C11.2747913,36.352693 11.4859185,36.4367064 11.7382375,36.5635488 C11.7811182,36.5635488 11.8223523,36.6063779 11.865233,36.6063779 C12.0763433,36.6903913 12.3303511,36.7744047 12.5826701,36.8600628 C12.6667849,36.9028918 12.7096656,36.9028918 12.7937804,36.9440761 C13.0048906,37.0280895 13.2588985,37.1121029 13.4700088,37.154932 C13.5541236,37.197761 13.6382383,37.197761 13.7239998,37.2389454 C13.93511,37.2817744 14.1462203,37.3657878 14.3573306,37.4069722 C14.4414453,37.4498012 14.5684408,37.4498012 14.6525556,37.4909856 C14.8636659,37.5338146 15.0318954,37.574999 15.2429888,37.617828 C15.3699843,37.6606571 15.4969798,37.6606571 15.6223286,37.7018414 C15.7905582,37.7446705 16.0016684,37.7858548 16.1715531,37.7858548 C16.3397826,37.8286839 16.4667781,37.8286839 16.6366712,37.8286839 C16.8049008,37.8286839 16.974777,37.8715129 17.1429981,37.8715129 C17.3112276,37.8715129 17.5223379,37.9143419 17.6922226,37.9143419 C17.8192181,37.9143419 17.9462135,37.957171 18.0715624,37.957171 C18.4096681,37.957171 18.7048932,38 19.0430074,38 C19.3811131,38 19.7192358,38 20.0144524,37.957171 L20.2684434,37.957171 C20.5224344,37.957171 20.7335615,37.9143419 20.9858805,37.9143419 C21.0699953,37.9143419 21.1969908,37.8715129 21.2811055,37.8715129 C21.4922158,37.8286839 21.7462237,37.8286839 21.9573339,37.7874995 C22.0414487,37.7874995 22.1255635,37.7446705 22.2113249,37.7446705 C22.4224352,37.7018414 22.6764431,37.6606571 22.8875533,37.617828 C22.9716681,37.617828 23.0557829,37.574999 23.1415443,37.574999 C23.3526546,37.5321699 23.6066625,37.4909856 23.8177727,37.4069722 C23.9018875,37.4069722 23.9447682,37.3641431 24.028883,37.3641431 C24.282874,37.2801297 24.4940011,37.2373007 24.7463201,37.1532873 C24.7892008,37.1532873 24.8733156,37.1104583 24.9145497,37.1104583 C25.1685407,37.0264449 25.4208765,36.9424315 25.6319868,36.8567734 C25.6748675,36.8567734 25.7161016,36.8139444 25.7589823,36.8139444 C26.0129733,36.729931 26.2653092,36.6030885 26.519317,36.5190751 C26.5621978,36.5190751 26.5621978,36.4762461 26.6034318,36.4762461 C26.8574228,36.3494037 27.1097587,36.2653903 27.3637665,36.1385478 C27.4066473,36.1385478 27.4066473,36.0957188 27.4478813,36.0957188 C27.7018723,35.9688763 27.9542082,35.8420339 28.2082161,35.6740071 C28.2082161,35.6740071 28.2510968,35.6740071 28.2510968,35.6311781 C28.5050878,35.5043356 28.7574236,35.3363088 29.0114315,35.1666205 C29.2654225,34.9985937 29.5177584,34.8289222 29.7717662,34.6609039 C34.7493241,31.163649 38,25.4705414 38,18.9770251 C38,8.47724799 29.5125228,0 19.000076,0 L18.999924,0 Z M32.3429373,29.2659549 C31.9635975,25.6814057 29.344496,22.729424 25.7554525,22.0129359 C24.5316885,21.759251 23.2221293,21.5912242 21.8284638,21.4643734 C20.9840227,21.8020716 20.0966841,22.0129359 19.1269279,22.0129359 C18.1983805,22.0129359 17.2698331,21.8449091 16.4666008,21.5072193 C15.1158329,21.6340617 13.89038,21.8020885 12.7095136,22.0129359 C9.03653274,22.7295084 6.33313911,25.8923459 6.12202885,29.603746 L6.12202885,29.8574308 C3.63160325,26.9054491 2.11093378,23.1100441 2.11093378,18.976848 C2.11093378,9.6561767 9.66783688,2.10838123 18.9997551,2.10838123 C28.3316733,2.10838123 35.8885764,9.6561767 35.8885764,18.976848 C35.8885764,22.856258 34.5790172,26.4407229 32.3425995,29.2657694 L32.3429373,29.2659549 Z"
                        id="Shape"
                />
            </g>
        </g>
    </g>
</svg>

<svg xmlns="http://www.w3.org/2000/svg" fill="none" width="38" height="38" stroke="currentColor"><g fill="currentColor"><path d="M19 21a6 6 0 110-12 6 6 0 010 12z"/><path d="M19 0C8.487 0 0 8.477 0 18.977c0 6.326 3.083 11.892 7.854 15.35.254.168.465.337.718.505.254.168.506.295.76.465 0 0 .043 0 .043.043.254.126.506.294.76.421.043 0 .043.043.084.043.254.127.507.254.718.379.043 0 .084.043.084.043.254.127.465.21.717.338.043 0 .084.042.127.042.211.084.465.168.718.254.084.043.127.043.21.084.212.084.466.168.677.21.084.044.168.044.254.085.211.043.422.127.633.168.084.043.211.043.296.084.21.043.379.084.59.127.127.043.254.043.38.084.168.043.379.084.549.084.168.043.295.043.465.043.168 0 .338.043.506.043.168 0 .38.042.55.042.126 0 .253.043.379.043.338 0 .633.043.971.043.338 0 .676 0 .971-.043h.254c.254 0 .466-.043.718-.043.084 0 .211-.042.295-.042.211-.043.465-.043.676-.085.084 0 .169-.042.254-.042.211-.043.465-.084.677-.127.084 0 .168-.043.254-.043.21-.043.465-.084.676-.168.084 0 .127-.043.21-.043.255-.084.466-.127.718-.21.043 0 .127-.044.169-.044.254-.084.506-.168.717-.253.043 0 .084-.043.127-.043.254-.084.506-.21.76-.295.043 0 .043-.043.084-.043.254-.127.507-.21.76-.337.044 0 .044-.043.085-.043.254-.127.506-.254.76-.422 0 0 .043 0 .043-.043.254-.127.506-.295.76-.464l.76-.506C34.75 31.164 38 25.47 38 18.977 38 8.477 29.513 0 19 0h0zm13.343 29.266c-.38-3.585-2.999-6.537-6.588-7.253-1.223-.254-2.533-.422-3.927-.549-.844.338-1.731.549-2.701.549-.929 0-1.857-.168-2.66-.506a45.137 45.137 0 00-3.757.506c-3.673.717-6.377 3.88-6.588 7.59v.254c-2.49-2.952-4.011-6.747-4.011-10.88C2.11 9.657 9.668 2.108 19 2.108c9.332 0 16.889 7.548 16.889 16.869 0 3.88-1.31 7.464-3.546 10.289h0z"/></g></svg>
